!!!OTL: UFM BERGN DA GIEHT DAR WIND
!!!ARE: Europa, Mitteleuropa, Deutschland, Oberschlesien
!!!SCT: K0129
!!!YEM: Copyright 1995, estate of Helmut Schaffrath.
**kern
*ICvox
*Ivox
*M6/8
*k[f#]
*G:
{16dd
16cc
=1
8.b
16cc
8b
8a
8b
8a
=2
4.g
4r}
{16dd
16cc
=3
8.b
16cc
8b
8a
8b
8a
=4
4.g
4r}
{8b
=5
8a
8b
8cc#
8dd
8a
8f#
=6
8g
8e
8a
4d}
{8b
=7
8a
8b
8cc#
8dd
8a
8f#
=8
8g
8e
8a
4d}
{8cc
=9
8b
8a
8a
8a
8g
8g
=10
8f#
8e
8f#
4g}
{8cc
=11
8b
8a
8a
8a
8g
8g
=12
8f#
8e
8f#
4g}
{8d
=13
8g
8g
8g
8b-
8a
8g
=14
8f#
8g
8a
4d}
{8d
=15
8g
8g
8g
8b-
8a
8g
=16
8f#
8g
8a
4d
8r}
=17
{4.b
4.g
=18
4.b
4.g}
==
!!!AGN: Kinder -, Wiegen - Lied
!!!ONB: ESAC (Essen Associative Code) Database: KINDER
!!!AMT: compound duple
!!!AIN: vox
!!!EED: Helmut Schaffrath
!!!EEV: 1.0
*-
